X:1
T: Colonel Alex. Grant's Strathspey
C:
R:Strathspey
Q: 128
K:Eb
M:4/4
L:1/16
|:D2|Cc3 c3d e3d c3B|GB3 B3G F3B D3B,|Cc3 c3d e3d c3B|G3B GFED C4 C2:|
|:G2|CC3 D3F G3F GB3|F3B, D3B, F3B, DB3|CC3 D3F G3F Gc3|B3F GFED C4 C2:|
|:D2|Cc3 c3d e3d c3B|GB3 B3G F3B D3B,|Cc3 c3d e3d c3B|G3B GFED C4 C2:|
|:g2|c3c d3f g3f gb3|f3B d3B f3B db3|c3c d3f g3f gb3|g3c' gfed c4 c2:|
